svgs/light/calendar-days.svg

<svg xmlns="http://www.w3.org/2000/svg" viewBox="0 0 448 512"><!--! Font Awesome Pro 6.6.0 by @fontawesome - https://fontawesome.com License - https://fontawesome.com/license (Commercial License) Copyright 2024 Fonticons, Inc. --><path d="M112 0c8.8 0 16 7.2 16 16l0 48 192 0 0-48c0-8.8 7.2-16 16-16s16 7.2 16 16l0 48 32 0c35.3 0 64 28.7 64 64l0 32 0 32 0 256c0 35.3-28.7 64-64 64L64 512c-35.3 0-64-28.7-64-64L0 192l0-32 0-32C0 92.7 28.7 64 64 64l32 0 0-48c0-8.8 7.2-16 16-16zM416 192l-104 0 0 72 104 0 0-72zm0 104l-104 0 0 80 104 0 0-80zm0 112l-104 0 0 72 72 0c17.7 0 32-14.3 32-32l0-40zM280 376l0-80-112 0 0 80 112 0zM168 408l0 72 112 0 0-72-112 0zm-32-32l0-80L32 296l0 80 104 0zM32 408l0 40c0 17.7 14.3 32 32 32l72 0 0-72L32 408zm0-144l104 0 0-72L32 192l0 72zm136 0l112 0 0-72-112 0 0 72zM384 96L64 96c-17.7 0-32 14.3-32 32l0 32 384 0 0-32c0-17.7-14.3-32-32-32z"/></svg>

<svg xmlns="http://www.w3.org/2000/svg" viewBox="0 0 448 512"><!--! Font Awesome Pro 6.4.2 by @fontawesome - https://fontawesome.com License - https://fontawesome.com/license (Commercial License) Copyright 2023 Fonticons, Inc. --><path d="M112 0c8.8 0 16 7.2 16 16V64H320V16c0-8.8 7.2-16 16-16s16 7.2 16 16V64h32c35.3 0 64 28.7 64 64v32 32V448c0 35.3-28.7 64-64 64H64c-35.3 0-64-28.7-64-64V192 160 128C0 92.7 28.7 64 64 64H96V16c0-8.8 7.2-16 16-16zM416 192H312v72H416V192zm0 104H312v80H416V296zm0 112H312v72h72c17.7 0 32-14.3 32-32V408zM280 376V296H168v80H280zM168 408v72H280V408H168zm-32-32V296H32v80H136zM32 408v40c0 17.7 14.3 32 32 32h72V408H32zm0-144H136V192H32v72zm136 0H280V192H168v72zM384 96H64c-17.7 0-32 14.3-32 32v32H416V128c0-17.7-14.3-32-32-32z"/></svg>
